X: 1627
T: Rûyâ mı O Günler
C: Ömer Dilek
O: Turkey
F: http://compmusic.upf.edu/node/140
N: nihavent--sarki--aksak--ruya_mi--omer_dilek
N: makam= nihavent
N: form= sarki
N: usul= aksak = 9/8
M: 9/8
L: 1/16
K: C _B _e  
Q: 1/4=156
%%MIDI tuningsystem comma53
G4 B4 A2B2 d6 | B3AAG G^FG8z2  | c3d d2d2 d2g2 d2e2 {f}ed | 
w:  Rû yâ  mı  o  gün  |  ler  *  ki  *  na *  sıl   |  geç *  ti  bi lin  | 
d6 e2dc BAdc BAG2  | G4 B4 A2B2 d6 | \
w:  mez   SAZ  |  Rû yâ  mı  o  gün  | 
B3AAG G^FG8z2  | 
w:  ler  *  ki  *  na *  sıl   | 
c3d d2d2 d2g2 d2e2 {f}ed | d6 e2dc BAdc Bcd2  | 
w:  geç *  ti  bi lin  |  mez   SAZ  | 
d4 d2e2 =e2f2 g4 z2 | f3ed2 c2dc BAB4z2  | \
w:  Ah  geç *  ti  fa kat   |  iz *  le ri  bir   | 
B4 B2B2 A2B2 c2B2 {c}BA | 
w:  tür lü  si lin  | 
B6 dcBA Bcd6  | d4 d2e2 =e2f2 g4 z2 | \
w:  mez   SAZ  |  Ah  geç *  ti  fa kat   | 
f3ed2 c2dc BAB4z2  | 
w:  iz *  le ri  bir   | 
B4 B2B2 A2B2 A2G2 G^F | G6 abag g^fg6  | \
w:  tür lü  si lin  |  mez   SAZ  | 
g4 d4 e2^f2 g4 z2 | 
w:  Sen siz  u za yan   | 
^f3gfe ede8z2  | d4 e2^f2 g2a2 bag2 {a}gf | \
w:  var *  lı *  ğı *  mın   |  mâ te mi  din  | 
g6 abag g^fg6  | 
w:  mez   SAZ  | 
b4 g4 a2g^f f4 z2 | g3^ffe ede8z2  | \
w:  Sen siz  u za *  yan   |  var *  lı *  ğı *  mın   | 
d4 ^f2a2 f4 gfge ed | 
w:  mâ te mi  din  | 
d6 e2dc BAdc Bcd2  | d4 d2e2 =e2f2 g4 z2 | \
w:  mez   SAZ  |  Ah  geç *  ti  fa kat   | 
f3ed2 c2dc BAB4z2  | 
w:  iz *  le ri  bir   | 
B4 B2B2 A2B2 c2B2 {c}BA | B6 dcBA Bcd6  | \
w:  tür lü  si lin  |  mez   SAZ  | 
d4 d2e2 =e2f2 g4 z2 | 
w:  Ah  geç *  ti  fa kat   | 
f3ed2 c2dc BAB4z2  | B4 B2B2 A2B2 A2G2 G^F | \
w:  iz *  le ri  bir   |  tür lü  si lin  | 
G6 |
w:  mez    | 


